X: 1
T: Laride
M: 4/4
L: 1/8
R: hornpipe
K: Amix
A2 AB AG A2|B2 Bc dc B2|A2 AB AG A2|1B2 Bc dc B2:|2B2 Bc dc (3Bcd||
e2 ed ef e2|\
M:5/4
d2 Bd cB A2 GA|\
M:6/4
B2 d2 B2 cB A2 GA|
B2 d2 B2 cB A2 GA| B2 d2 B2 cB A2 GA|\
M:5/4
B2 d2 B2 cB AG||
